X:11
T:Rakes of Milford
C:Mike Mahar
L:1/8
Q:1/4=120
M:C
K:G
Bc |: d3/2^c/ d3/2e/ dB GB | e3/2^d/ ef g2 fe | d3/2e/ d3/2^c/ dB GB |
 A3/2B/ cB A2 Bc |  d3/2^c/ d3/2e/ dB GB | e3/2^d/ ef g2 fe | d3/2e/ dB cB AB |1 G2 G3/2A/ G2 Bc :|2 G2 G3/2A/ G2 FG |
|: A2 A3/2B/ AF D2 | c2 B3/2G/ A2 FG | A2 A3/2B/ AF D2 | d2 ^c3/2e/ d2 B=c | d3/2^c/ d3/2e/ dB GB | e3/2^d/ ef g2 fe | d3/2e/ dB cB AB |1 G2 G3/2A/ G2 FG :|2 G2 G3/2A/ G4 |]

